X:159
T: ES KOMMEN DREI MAENNER VON NINIVE
N: K2268A
O: Europa, Mitteleuropa, Deutschland, Zwickau
R: Kinder - Lied, Reigen, Tanz - Spiel
M: 2/4
L: 1/16
K: D
D2 | AAA2AAB2 | A2A2F2z2 |
A3BA2B2 | A4F2
D2 | AAA2AAB2 | A2A2F2z2 |
A3BA2B2 | A4F2

